<?xml version="1.0" encoding="UTF-8"?>
<map version="1.10" tiledversion="1.11.2" orientation="orthogonal" renderorder="right-down" width="12" height="8" tilewidth="16" tileheight="16" infinite="0" nextlayerid="2" nextobjectid="1">
 <tileset firstgid="1" source="desert_bg.tsx"/>
 <layer id="1" name="Tile Layer 1" width="12" height="8">
  <data encoding="csv">
2,2,2,2,2,1,1,2,2,2,2,2,
2,1,1,1,1,1,1,1,1,1,1,2,
2,1,1,1,1,1,1,1,1,1,1,2,
1,1,1,1,1,1,1,1,1,1,1,1,
1,1,1,1,8,8,8,8,1,1,1,1,
2,2,2,2,5,5,5,5,2,2,2,2,
2,2,2,2,2,5,5,2,2,2,2,2,
4,4,4,4,4,5,5,4,4,4,4,4
</data>
 </layer>
</map>
