<?xml version="1.0" encoding="UTF-8"?>
<map version="1.10" tiledversion="1.11.2" orientation="orthogonal" renderorder="right-down" width="12" height="8" tilewidth="16" tileheight="16" infinite="0" nextlayerid="2" nextobjectid="1">
 <tileset firstgid="1" source="desert_bg.tsx"/>
 <layer id="1" name="Tile Layer 1" width="12" height="8">
  <data encoding="csv">
10,14,14,14,14,14,14,14,14,14,14,11,
15,30,30,30,30,30,30,30,30,30,30,15,
15,30,30,30,30,30,30,30,30,30,30,15,
15,30,30,30,30,30,30,30,30,30,30,15,
15,30,30,30,30,30,30,30,30,30,30,15,
15,30,30,30,30,30,30,30,30,30,30,15,
15,30,30,30,30,30,30,30,30,30,30,15,
12,14,14,14,14,30,30,14,14,14,14,13
</data>
 </layer>
</map>
