<?xml version="1.0" encoding="UTF-8"?>
<map version="1.10" tiledversion="1.11.2" orientation="orthogonal" renderorder="right-down" width="12" height="8" tilewidth="16" tileheight="16" infinite="0" nextlayerid="2" nextobjectid="1">
 <tileset firstgid="1" source="desert_bg.tsx"/>
 <layer id="1" name="Tile Layer 1" width="12" height="8">
  <data encoding="csv">
25,25,25,25,25,1,1,25,25,25,25,25,
25,2,1,1,1,1,1,1,1,2,2,25,
25,1,1,1,1,29,1,29,1,1,2,25,
1,1,1,29,1,1,1,29,1,1,1,25,
1,1,1,29,1,29,1,1,1,1,1,25,
25,1,1,29,1,29,1,29,1,1,2,25,
25,2,2,1,1,1,1,1,1,2,2,25,
25,25,25,25,25,25,25,25,25,25,25,25
</data>
 </layer>
</map>
