<?xml version="1.0" encoding="UTF-8"?>
<map version="1.10" tiledversion="1.11.2" orientation="orthogonal" renderorder="right-down" width="12" height="8" tilewidth="16" tileheight="16" infinite="0" nextlayerid="2" nextobjectid="1">
 <tileset firstgid="1" source="desert_bg.tsx"/>
 <layer id="1" name="Tile Layer 1" width="12" height="8">
  <data encoding="csv">
31,31,31,31,15,28,28,15,31,31,31,31,
31,31,31,31,15,28,28,15,31,31,31,31,
31,31,31,31,15,28,28,15,31,31,31,31,
31,31,31,31,15,28,28,15,31,31,31,31,
31,31,31,31,15,28,28,15,31,31,31,31,
31,31,31,31,15,28,28,15,31,31,31,31,
31,31,31,31,15,28,28,15,31,31,31,31,
31,31,31,31,12,14,14,13,31,31,31,31
</data>
 </layer>
</map>
